icons/ionicons/sharp/camera-sharp.svg

<svg xmlns="http://www.w3.org/2000/svg" viewBox="0 0 512 512" width="20" height="20"><circle cx="256" cy="272" r="64"/><path d="M456 144h-83c-3 0-6.72-1.94-9.62-5L336.1 96.2C325 80 320 80 302 80h-92c-18 0-24 0-34.07 16.21L148.62 139c-2.22 2.42-5.34 5-8.62 5v-16a8 8 0 00-8-8H92a8 8 0 00-8 8v16H56a24 24 0 00-24 24v240a24 24 0 0024 24h400a24 24 0 0024-24V168a24 24 0 00-24-24zM260.51 367.9a96 96 0 1191.39-91.39 96.11 96.11 0 01-91.39 91.39z"/></svg>

<svg xmlns="http://www.w3.org/2000/svg" width="512" height="512" viewBox="0 0 512 512"><title>ionicons-v5-e</title><circle cx="256" cy="272" r="64"/><path d="M456,144H373c-3,0-6.72-1.94-9.62-5l-27.28-42.8C325,80,320,80,302,80H210c-18,0-24,0-34.07,16.21L148.62,139c-2.22,2.42-5.34,5-8.62,5V128a8,8,0,0,0-8-8H92a8,8,0,0,0-8,8v16H56a24,24,0,0,0-24,24V408a24,24,0,0,0,24,24H456a24,24,0,0,0,24-24V168A24,24,0,0,0,456,144ZM260.51,367.9a96,96,0,1,1,91.39-91.39A96.11,96.11,0,0,1,260.51,367.9Z"/></svg>
